src/categories-icons-sprite/categories/svg-cat-child-cosmetics.svg

<svg width="37" height="28" viewBox="0 0 37 28" fill="none" xmlns="http://www.w3.org/2000/svg">
<path class="p-8CBCFF" d="M25.788 10.9056C27.0586 10.9056 28.0887 9.87551 28.0887 8.60488C28.0887 7.33425 27.0586 6.3042 25.788 6.3042C24.5174 6.3042 23.4873 7.33425 23.4873 8.60488C23.4873 9.87551 24.5174 10.9056 25.788 10.9056Z" fill="#A1D1FD"/>
<path class="p-FF3C7D" d="M18.4668 14.2437L17.0225 19.3861L36.9338 17.9418V14.2437H18.4668Z" fill="#4D98CB"/>
<path class="p-FFA2C1" d="M18.4671 14.2437H0V17.9418L18.4671 19.3861V14.2437Z" fill="#58ADE5"/>
<path class="p-DAC4BB" d="M18.4668 28H28.1929C33.0205 28 36.934 24.0865 36.934 19.259V17.9419H18.4668L17.0225 22.9709L18.4668 28Z" fill="#76B7E2"/>
<path class="p-EFE2DD" d="M0 17.9419V19.259C0 24.0866 3.91347 28 8.74104 28H18.4672V17.9419H0Z" fill="#5FBEFF"/>
<path class="p-8CBCFF" d="M21.9177 3.45094C21.9177 1.54504 20.3727 0 18.4668 0L17.0225 3.45101L18.4668 6.90203C20.3727 6.90195 21.9177 5.35684 21.9177 3.45094Z" fill="#A1D1FD"/>
<path class="p-BEEBFA" d="M15.0166 3.45094C15.0166 5.35684 16.5616 6.90196 18.4675 6.90196V0C16.5616 0 15.0166 1.54504 15.0166 3.45094Z" fill="#B9DFFC"/>
</svg>

<svg width="37" height="28" fill="none" xmlns="http://www.w3.org/2000/svg"><path class="p-8CBCFF" d="M25.788 10.906a2.3 2.3 0 100-4.602 2.3 2.3 0 000 4.602z" fill="#A1D1FD"/><path class="p-FF3C7D" d="M18.467 14.244l-1.444 5.142 19.91-1.444v-3.698H18.468z" fill="#4D98CB"/><path class="p-FFA2C1" d="M18.467 14.244H0v3.698l18.467 1.444v-5.142z" fill="#58ADE5"/><path class="p-DAC4BB" d="M18.467 28h9.726a8.741 8.741 0 008.741-8.741v-1.317H18.467l-1.444 5.029L18.466 28z" fill="#76B7E2"/><path class="p-EFE2DD" d="M0 17.942v1.317A8.741 8.741 0 008.741 28h9.726V17.942H0z" fill="#5FBEFF"/><path class="p-8CBCFF" d="M21.918 3.45A3.45 3.45 0 0018.467 0l-1.444 3.451 1.444 3.451a3.451 3.451 0 003.45-3.451z" fill="#A1D1FD"/><path class="p-BEEBFA" d="M15.017 3.45a3.451 3.451 0 003.45 3.452V0a3.45 3.45 0 00-3.45 3.45z" fill="#B9DFFC"/></svg>
